public/images/logo.svg

<svg viewBox="0 0 315 274" xmlns="http://www.w3.org/2000/svg"><g fill="#fff" fill-rule="evenodd"><path d="m274.486793 137.143237c0-75.4448155-61.233262-136.60492276-136.768319-136.60492276-75.5350566 0-136.76831876 61.16010726-136.76831876 136.60492276 0 75.444816 61.23326216 136.604923 136.76831876 136.604923 75.535057 0 136.768319-61.160107 136.768319-136.604923zm-248.6696707 0c0-61.7275763 50.0999418-111.767664 111.9013517-111.767664 61.80141 0 111.901352 50.0400877 111.901352 111.767664 0 61.727577-50.099942 111.767664-111.901352 111.767664-61.8014099 0-111.9013517-50.040087-111.9013517-111.767664z"/><path d="m191.596903 137.143237c0-29.720685-24.122194-53.8140604-53.878429-53.8140604-29.756234 0-53.8784285 24.0933754-53.8784285 53.8140604s24.1221945 53.814061 53.8784285 53.814061c29.756235 0 53.878429-24.093376 53.878429-53.814061zm-82.88989 0c0-16.003446 12.988873-28.976802 29.011461-28.976802s29.011462 12.973356 29.011462 28.976802-12.988874 28.976802-29.011462 28.976802-29.011461-12.973356-29.011461-28.976802z"/><path d="m302.624759 149.561867c6.433083 0 11.648127-5.56001 11.648127-12.41863 0-6.858619-5.215044-12.418629-11.648127-12.418629h-124.246695c-6.433084 0-11.648128 5.56001-11.648128 12.418629 0 6.85862 5.215044 12.41863 11.648128 12.41863z"/></g></svg>

<?xml version="1.0" encoding="UTF-8" standalone="no"?>
<svg  viewBox="0 0 315 274" version="1.1" xmlns="http://www.w3.org/2000/svg" xmlns:xlink="http://www.w3.org/1999/xlink" xmlns:sketch="http://www.bohemiancoding.com/sketch/ns">
    <!-- Generator: Sketch 3.2.2 (9983) - http://www.bohemiancoding.com/sketch -->
    <title>Oval-1 + Oval-2 + Line</title>
    <desc>Created with Sketch.</desc>
    <defs></defs>
    <g id="Page-1" stroke="none" stroke-width="1" fill="none" fill-rule="evenodd" sketch:type="MSPage">
        <g id="Oval-1-+-Oval-2-+-Line" sketch:type="MSLayerGroup" fill="#FFFFFF">
            <path d="M274.486793,137.143237 C274.486793,61.6984215 213.253531,0.538314236 137.718474,0.538314236 C62.1834174,0.538314236 0.950155239,61.6984215 0.950155239,137.143237 C0.950155239,212.588053 62.1834174,273.74816 137.718474,273.74816 C213.253531,273.74816 274.486793,212.588053 274.486793,137.143237 L274.486793,137.143237 Z M25.8171223,137.143237 C25.8171223,75.4156607 75.9170641,25.375573 137.718474,25.375573 C199.519884,25.375573 249.619826,75.4156607 249.619826,137.143237 C249.619826,198.870814 199.519884,248.910901 137.718474,248.910901 C75.9170641,248.910901 25.8171223,198.870814 25.8171223,137.143237 L25.8171223,137.143237 Z" id="Oval-1" sketch:type="MSShapeGroup"></path>
            <path d="M191.596903,137.143237 C191.596903,107.422552 167.474709,83.3291766 137.718474,83.3291766 C107.96224,83.3291766 83.8400455,107.422552 83.8400455,137.143237 C83.8400455,166.863922 107.96224,190.957298 137.718474,190.957298 C167.474709,190.957298 191.596903,166.863922 191.596903,137.143237 L191.596903,137.143237 Z M108.707013,137.143237 C108.707013,121.139791 121.695886,108.166435 137.718474,108.166435 C153.741062,108.166435 166.729936,121.139791 166.729936,137.143237 C166.729936,153.146683 153.741062,166.120039 137.718474,166.120039 C121.695886,166.120039 108.707013,153.146683 108.707013,137.143237 L108.707013,137.143237 Z" id="Oval-2" sketch:type="MSShapeGroup"></path>
            <path d="M302.624759,149.561867 C309.057842,149.561867 314.272886,144.001857 314.272886,137.143237 C314.272886,130.284618 309.057842,124.724608 302.624759,124.724608 L178.378064,124.724608 C171.94498,124.724608 166.729936,130.284618 166.729936,137.143237 C166.729936,144.001857 171.94498,149.561867 178.378064,149.561867 L302.624759,149.561867 L302.624759,149.561867 Z" id="Line" sketch:type="MSShapeGroup"></path>
        </g>
    </g>
</svg>
